X:1
T:In Gethsemane Alone
T:Samuel Edward Reed, circa 1912
T:In Gethsemane Alone
T:Public Domain
T:Public Domain
C:Samuel Edward Reed, circa 1912
Z:Public Domain
%%score ( 1 2 ) ( 3 4 )
L:1/8
M:4/4
K:Bb
V:1 treble 
V:2 treble 
V:3 bass 
V:4 bass 
V:1
 [DF][DG] | [DB][DB][DB][DG] [DB]2 [DF][DG] | [DB][FB][GB][EG] [DF]4 | %3
w: 1.~Oh, what|wond- rous love I see, Free- ly|shown for you and me,|
w: 2.~“Tar- ry|here,” He told the three, “Tar- ry|here and watch for Me,”|
w: 3.~Long in|ang- uish deep was He, Weep- ing|there for you and me,|
 [Fd]3 [Ec] [DB]F [=EG]>[Ed] | [Fc]6 [DF][DG] | [DB][DB][DB][DG] [DB]2 [DF][DG] | %6
w: By the One Who did a-|Just to show|His match- less grace, Je- sus suf-|
w: But they heard no bit- ter|For the three|dis- ci- ples slept While my lov-|
w: For our sin to Him was|We should love|Him ev- er- more For the ang-|
 [DB][FB][GB][EG] [DF]4 | [Fd]3 [Ec] [DB]F [Ec]>[DB] | [DB]6 ||"^Refrain" F>G | D2 E2 [DB]2 G>B | %11
w: fered for the race, In|Geth- sem- a- ne, a- lone.|what|love, match-|less love, Oh, what love|
w: ing Sav- ior wept In|Geth- sem- a- ne, a- lone.||||
w: uish that He bore In|Geth- sem- a- ne, a- lone.||||
 D2 C2 [DF]2 B>c | F2 ^F2 [Gd][=FB] [=EG]>[Ed] | [Ec]6 [DF][DG] | [DB][DB][DB][DG] [DB]2 [DF][DG] | %15
w: me was shown! * His|* ev- er I will be,|the * love|He gave to me, When He suf-|
w: ||||
w: ||||
 [DB][FB][GB][EG] [DF]4 | [Fd]3 [Ec] [DB]F [Ec]>[DB] | [DB]6 |] %18
w: fered all a- lone. *|||
w: |||
w: |||
V:2
 x2 | x8 | x8 | x5 F x2 | x8 | x8 | x8 | x5 F x2 | x6 || x2 | B4- x4 | F4- x4 | d4- x4 | x8 | x8 | %15
w: |||tone!||||Oh,|||for|for-|For|||
w: |||moan;||||||||||||
w: |||known;||||||||||||
 x8 | x5 F x2 | x6 |] %18
w: |||
w: |||
w: |||
V:3
 [B,,B,][B,,B,] | [B,,F,][B,,F,][B,,F,][B,,B,] [B,,F,]2 [B,,B,][B,,B,] | %2
w: ~ ~|~ ~ ~ ~ ~ ~ ~|
 [B,,F,][D,B,][D,B,][G,B,] B,4 | B,3 [F,A,] [G,B,][D,B,] [C,B,]>[C,B,] | [F,A,]6 [B,,B,][B,,B,] | %5
w: ~ ~ ~ ~ ~|~ ~ ~ ~ ~ ~|~ ~ ~|
 [B,,F,][B,,F,][B,,F,][B,,B,] [B,,F,]2 [B,,B,][B,,B,] | [B,,F,][D,B,][E,B,][G,B,] B,4 | %7
w: ~ ~ ~ ~ ~ ~ ~|~ ~ ~ ~ ~|
 B,3 [F,A,] [G,B,][D,B,] [F,A,]>F, | [B,,F,]6 || z2 | [B,,F,]2 [B,,G,]2 [B,,F,]2 z2 | %11
w: ~ ~ ~ ~ Oh, what|less||love, Oh, what|
 [B,,B,]2 [F,A,]2 [B,,B,]2 z2 | B,2 [A,C]2 [G,B,][D,B,] [C,B,]>[C,B,] | [F,A,]6 [B,,B,][B,,B,] | %14
w: love * *|||
 [B,,F,][B,,F,][B,,F,][B,,B,] [B,,F,]2 [B,,B,][B,,B,] | [B,,F,][D,B,][E,B,][G,B,] B,4 | %16
w: ||
 B,3 [F,A,] [G,B,][D,B,] [F,A,]>F, | [B,,F,]6 |] %18
w: ||
V:4
 x2 | x8 | x4 B,4 | B,3 x5 | x8 | x8 | x4 B,4 | B,3 x3/2 F,/ x3 | x6 || x2 | x8 | x8 | B,2 x6 | %13
w: ||~|~|||~|love, match-||||||
 x8 | x8 | x4 B,4 | B,3 x3/2 F,/ x3 | x6 |] %18
w: |||||

